X: 41893
T: Vrålkåda
R: reel
M: 4/4
K: Adorian
|:c2c>B A2A>c|B2B>^G E2 E2|c2c>B A2A>c|B2 ^d2 e4|
c2c>B A2A>c|B2B>^G E2 E>=G|F>E D2 E2 E>C|B,>A, G,2 A,4-:|
|:A,>G, A,>C B,2 B,2-|B,2 B,>DC2 C2-|C2 C>E G>A G>E|F>A F>DE2 E2-|
E2 A,>C B,2 B,2-|B,2 B,>D C>D E>G|F>E D2 E2-E>C|B,>A, G,2 A,4-:|

